X:1
T:Title
%%score { 1 | ( 2 3 ) }
L:1/8
Q:1/4=100
M:6/8
K:F
V:1 treble nm="Grand Piano"
V:2 bass 
V:3 bass 
V:1
 [CA]>_A=A B2 A | [CA]2 G [A,F]3 | [A,CF]>[A,CF][A,CF] [CFA]2 [CFA] | [CEG]6 | [CA]>_A=A B2 A | %5
w: Mrs.~C.~H.~Morris * * * *|||||
 [_Ec]2 B A2 G | F>FF [EG]2 [EG] | F6 | c>cc c2 d | c3 A3 | F>FF [DFB]2 [B,FB] | [CFA]6 | %12
w: |||||||
 [CFA]2 [DFB] [CFA]>[B,FG][A,F] | [B,DF]2 [F,D] [DB][DA][G,DG] | %14
w: ||
 [A,CF]>[A,CF][A,CF] [CEG]2 [B,EG] | [A,F]6 |] %16
w: ||
V:2
 z z/ C/C D2 C | z2 B, F,,3 | F,>F,F, F,2 F, | C,6 | z z/ =B,/C D2 C | z2 D C2 B, | %6
 [C,A,C]>[C,A,C][C,A,C] [C,C]2 [C,B,] | [F,A,]6 | [F,A,F]>[F,A,F][F,A,F] [F,A,F]2 [F,B,F] | %9
 [F,A,F]3 [F,C]3 | [D,A,]>[D,A,][D,A,] B,,2 D, | F,6 | F,2 F, F,>F,F, | %13
 B,,2 B,, [G,,G,][A,,^F,]B,, | C,>C,C, C,2 C, | F,6 |] %16
V:3
 F,,6 | C,,3 z3 | x6 | x6 | F,,6 | B,,6 | x6 | x6 | x6 | x6 | x6 | x6 | x6 | x6 | x6 | x6 |] %16

